apps/service-portal/src/assets/images/myRights.svg

<svg width="48" height="64" viewBox="0 0 48 64" fill="none" xmlns="http://www.w3.org/2000/svg">
<path d="M40.8925 55.8472C40.8925 55.8472 40.8925 57.8983 40.8925 59.6128C40.8925 61.3273 38.7207 63.3744 38.7207 63.3744H37.7605H34.8443H33.8841C33.8841 63.3744 31.7122 61.3273 31.7122 59.6128C31.7122 57.8983 31.7122 55.8472 31.7122 55.8472H34.5453H38.0594H40.8925ZM13.3754 16.582H0.875V42.0778L20.3324 42.0006L13.3754 16.582Z" fill="url(#paint0_linear)"/>
<path d="M29.5029 42.3768H0.875094C0.710771 42.3768 0.578125 42.2442 0.578125 42.0799V16.5821C0.578125 16.4178 0.710771 16.2852 0.875094 16.2852H36.8954C37.0598 16.2852 37.1924 16.4178 37.1924 16.5821V23.4659C37.1924 23.6302 37.0598 23.7628 36.8954 23.7628C36.7311 23.7628 36.5985 23.6302 36.5985 23.4659V16.8791H1.17206V41.7809H29.5009C29.6652 41.7809 29.7979 41.9136 29.7979 42.0779C29.7979 42.2422 29.6652 42.3768 29.5029 42.3768Z" fill="#6A2EA0"/>
<path d="M16.1602 49.9241C15.9959 49.9241 15.8633 49.7914 15.8633 49.6271V42.0802C15.8633 41.9158 15.9959 41.7832 16.1602 41.7832C16.3246 41.7832 16.4572 41.9158 16.4572 42.0802V49.6271C16.4572 49.7914 16.3226 49.9241 16.1602 49.9241Z" fill="#6A2EA0"/>
<path d="M21.7735 49.9241C21.6092 49.9241 21.4766 49.7914 21.4766 49.6271V42.0802C21.4766 41.9158 21.6092 41.7832 21.7735 41.7832C21.9379 41.7832 22.0705 41.9158 22.0705 42.0802V49.6271C22.0705 49.7914 21.9379 49.9241 21.7735 49.9241Z" fill="#6A2EA0"/>
<path d="M10.5333 51.8662C10.369 51.8662 10.2363 51.7335 10.2363 51.5692C10.2363 50.3338 11.2421 49.3301 12.4755 49.3301H26.2469C26.4112 49.3301 26.5439 49.4627 26.5439 49.627C26.5439 49.7914 26.4112 49.924 26.2469 49.924H12.4755C11.5687 49.924 10.8303 50.6625 10.8303 51.5692C10.8303 51.7335 10.6976 51.8662 10.5333 51.8662Z" fill="#6A2EA0"/>
<path d="M9.315 5.17492C9.81797 5.17492 10.2257 4.76719 10.2257 4.26422C10.2257 3.76125 9.81797 3.35352 9.315 3.35352C8.81203 3.35352 8.4043 3.76125 8.4043 4.26422C8.4043 4.76719 8.81203 5.17492 9.315 5.17492Z" fill="#0061FF"/>
<path d="M18.8189 5.17492C19.3219 5.17492 19.7296 4.76719 19.7296 4.26422C19.7296 3.76125 19.3219 3.35352 18.8189 3.35352C18.3159 3.35352 17.9082 3.76125 17.9082 4.26422C17.9082 4.76719 18.3159 5.17492 18.8189 5.17492Z" fill="#0061FF"/>
<path d="M32.7798 5.17492C33.2828 5.17492 33.6906 4.76719 33.6906 4.26422C33.6906 3.76125 33.2828 3.35352 32.7798 3.35352C32.2769 3.35352 31.8691 3.76125 31.8691 4.26422C31.8691 4.76719 32.2769 5.17492 32.7798 5.17492Z" fill="#0061FF"/>
<path d="M36.3017 57.5822H31.3106C31.1463 57.5822 31.0137 57.4496 31.0137 57.2853C31.0137 57.1209 31.1463 56.9883 31.3106 56.9883H36.3017C36.466 56.9883 36.5987 57.1209 36.5987 57.2853C36.5987 57.4496 36.466 57.5822 36.3017 57.5822Z" fill="#6A2EA0"/>
<path d="M43.9576 63.672H22.4591C22.2948 63.672 22.1621 63.5394 22.1621 63.3751C22.1621 63.2108 22.2948 63.0781 22.4591 63.0781H43.9576C44.122 63.0781 44.2546 63.2108 44.2546 63.3751C44.2546 63.5394 44.122 63.672 43.9576 63.672Z" fill="#6A2EA0"/>
<path d="M41.8926 61.0508C40.772 61.0508 39.8613 60.1401 39.8613 59.0195C39.8613 57.899 40.772 56.9883 41.8926 56.9883C43.0132 56.9883 43.9239 57.899 43.9239 59.0195C43.9239 60.1401 43.0132 61.0508 41.8926 61.0508ZM41.8926 57.5822C41.1007 57.5822 40.4553 58.2276 40.4553 59.0195C40.4553 59.8115 41.1007 60.4569 41.8926 60.4569C42.6845 60.4569 43.3299 59.8115 43.3299 59.0195C43.3299 58.2276 42.6865 57.5822 41.8926 57.5822Z" fill="#6A2EA0"/>
<path d="M22.9202 8.33847H18.9349C18.7706 8.33847 18.6379 8.20582 18.6379 8.0415C18.6379 7.87717 18.7706 7.74453 18.9349 7.74453H22.9202C24.8426 7.74453 26.4066 6.18049 26.4066 4.25811C26.4066 2.33574 24.8426 0.771699 22.9202 0.771699H4.35769C2.43532 0.769719 0.871281 2.33376 0.871281 4.25613C0.871281 6.17851 2.43532 7.74255 4.35769 7.74255H14.122C14.2863 7.74255 14.419 7.87519 14.419 8.03952C14.419 8.20384 14.2863 8.33649 14.122 8.33649H4.35769C2.10865 8.33847 0.277344 6.50716 0.277344 4.25613C0.277344 2.00511 2.10865 0.175781 4.35769 0.175781H22.9202C25.1712 0.175781 27.0006 2.00709 27.0006 4.25613C27.0006 6.50518 25.1712 8.33847 22.9202 8.33847Z" fill="#6A2EA0"/>
<path d="M18.9487 25.6593C18.8181 25.6593 18.6993 25.5741 18.6636 25.4415L13.8369 8.1203C13.7933 7.96191 13.8864 7.79759 14.0428 7.75404C14.2012 7.71048 14.3635 7.80155 14.4091 7.95993L19.2358 25.2811C19.2794 25.4395 19.1883 25.6038 19.0299 25.6474C19.0022 25.6553 18.9764 25.6593 18.9487 25.6593Z" fill="#6A2EA0"/>
<path d="M36.2728 53.7724C36.1085 53.7724 35.9758 53.6398 35.9758 53.4754V48.9457C35.9758 46.4769 37.9853 44.4674 40.4541 44.4674H44.6275C45.9916 44.4674 47.1022 43.3567 47.1022 41.9926C47.1022 40.6286 45.9916 39.5179 44.6275 39.5179H36.7123C33.7169 39.5179 31.2797 37.0808 31.2797 34.0854V30.3119C31.2797 27.7461 29.193 25.6594 26.6272 25.6594H26.0333C25.869 25.6594 25.7363 25.5267 25.7363 25.3624C25.7363 25.1981 25.869 25.0654 26.0333 25.0654H26.6272C29.5197 25.0654 31.8737 27.4194 31.8737 30.3119V34.0854C31.8737 36.7541 34.0435 38.924 36.7123 38.924H44.6275C46.3202 38.924 47.6962 40.2999 47.6962 41.9926C47.6962 43.6854 46.3202 45.0613 44.6275 45.0613H40.4541C38.312 45.0613 36.5697 46.8035 36.5697 48.9457V53.4754C36.5697 53.6398 36.4371 53.7724 36.2728 53.7724Z" fill="#6A2EA0"/>
<path d="M26.7041 52.2736H0.970797C0.806474 52.2736 0.673828 52.141 0.673828 51.9766C0.673828 51.8123 0.806474 51.6797 0.970797 51.6797H26.7041C26.8684 51.6797 27.0011 51.8123 27.0011 51.9766C27.0011 52.141 26.8684 52.2736 26.7041 52.2736Z" fill="#6A2EA0"/>
<defs>
<linearGradient id="paint0_linear" x1="-2.3734" y1="19.8318" x2="39.946" y2="62.1512" gradientUnits="userSpaceOnUse">
<stop stop-color="#4C90FF"/>
<stop offset="0.1157" stop-color="#538EFB"/>
<stop offset="0.2734" stop-color="#6487EF"/>
<stop offset="0.4552" stop-color="#817DDB"/>
<stop offset="0.655" stop-color="#A96DC0"/>
<stop offset="0.8671" stop-color="#DB5A9D"/>
<stop offset="1" stop-color="#FF4C84"/>
</linearGradient>
</defs>
</svg>

<svg width="48" height="64" fill="none" xmlns="http://www.w3.org/2000/svg"><path d="M40.892 55.847v3.766c0 1.714-2.171 3.761-2.171 3.761h-4.837s-2.172-2.047-2.172-3.761v-3.766h9.181ZM13.375 16.582H.875v25.496L20.332 42l-6.957-25.419Z" fill="url(#a)"/><path d="M29.503 42.377H.875a.297.297 0 0 1-.297-.297V16.582c0-.164.133-.297.297-.297h36.02c.165 0 .297.133.297.297v6.884a.297.297 0 1 1-.593 0v-6.587H1.172v24.902h28.329a.298.298 0 0 1 .002.596Z" fill="#6A2EA0"/><path d="M16.16 49.924a.297.297 0 0 1-.297-.297V42.08a.297.297 0 1 1 .594 0v7.547a.298.298 0 0 1-.297.297ZM21.773 49.924a.297.297 0 0 1-.296-.297V42.08a.297.297 0 1 1 .593 0v7.547a.297.297 0 0 1-.297.297Z" fill="#6A2EA0"/><path d="M10.533 51.866a.297.297 0 0 1-.297-.297 2.242 2.242 0 0 1 2.24-2.239h13.77a.297.297 0 1 1 0 .594h-13.77c-.907 0-1.646.739-1.646 1.645a.297.297 0 0 1-.297.297Z" fill="#6A2EA0"/><path d="M9.315 5.175a.91.91 0 1 0 0-1.821.91.91 0 0 0 0 1.82ZM18.819 5.175a.91.91 0 1 0 0-1.821.91.91 0 0 0 0 1.82ZM32.78 5.175a.91.91 0 1 0 0-1.822.91.91 0 0 0 0 1.822Z" fill="#0061FF"/><path d="M36.302 57.582H31.31a.296.296 0 1 1 0-.594h4.99a.297.297 0 1 1 0 .594ZM43.958 63.672H22.459a.297.297 0 1 1 0-.594h21.499a.297.297 0 1 1 0 .594ZM41.893 61.05c-1.121 0-2.032-.91-2.032-2.03a2.033 2.033 0 0 1 4.063 0c0 1.12-.91 2.03-2.031 2.03Zm0-3.468a1.44 1.44 0 0 0-1.438 1.438 1.44 1.44 0 0 0 1.438 1.437 1.438 1.438 0 0 0 0-2.875ZM22.92 8.338h-3.985a.297.297 0 1 1 0-.593h3.985a3.49 3.49 0 0 0 3.487-3.487A3.49 3.49 0 0 0 22.92.772H4.358A3.487 3.487 0 0 0 .87 4.256a3.49 3.49 0 0 0 3.487 3.487h9.764a.297.297 0 1 1 0 .593H4.358a4.084 4.084 0 0 1-4.08-4.08 4.085 4.085 0 0 1 4.08-4.08H22.92A4.085 4.085 0 0 1 27 4.256c0 2.25-1.829 4.082-4.08 4.082Z" fill="#6A2EA0"/><path d="M18.949 25.66a.294.294 0 0 1-.285-.218L13.837 8.12a.298.298 0 0 1 .572-.16l4.827 17.321a.297.297 0 0 1-.287.378ZM36.273 53.772a.297.297 0 0 1-.297-.297v-4.53a4.484 4.484 0 0 1 4.478-4.478h4.173a2.478 2.478 0 0 0 2.475-2.474 2.478 2.478 0 0 0-2.474-2.475h-7.916a5.439 5.439 0 0 1-5.432-5.433v-3.773a4.657 4.657 0 0 0-4.653-4.653h-.594a.297.297 0 1 1 0-.594h.594a5.253 5.253 0 0 1 5.247 5.247v3.773a4.843 4.843 0 0 0 4.838 4.839h7.915a3.071 3.071 0 0 1 3.07 3.069 3.071 3.071 0 0 1-3.07 3.068h-4.173a3.888 3.888 0 0 0-3.884 3.885v4.53a.297.297 0 0 1-.297.296ZM26.704 52.274H.971a.297.297 0 1 1 0-.594h25.733a.297.297 0 1 1 0 .594Z" fill="#6A2EA0"/><defs><linearGradient id="a" x1="-2.373" y1="19.832" x2="39.946" y2="62.151" gradientUnits="userSpaceOnUse"><stop stop-color="#4C90FF"/><stop offset=".116" stop-color="#538EFB"/><stop offset=".273" stop-color="#6487EF"/><stop offset=".455" stop-color="#817DDB"/><stop offset=".655" stop-color="#A96DC0"/><stop offset=".867" stop-color="#DB5A9D"/><stop offset="1" stop-color="#FF4C84"/></linearGradient></defs></svg>
